packages/icons/src/emoji/svg/hotdog.svg

<svg width="120" height="120" viewBox="0 0 120 120" fill="none" xmlns="http://www.w3.org/2000/svg">
<path d="M97.5285 92.5315C101.044 92.4846 104.447 91.069 106.978 88.5377C107.747 87.769 108.722 86.794 109.388 85.2565C111.966 79.2658 106.613 72.1033 105.328 70.3877C102.647 66.7971 99.6472 64.6877 98.4754 63.9283C98.3066 63.8158 98.166 63.7315 98.1097 63.694C92.9722 60.469 78.7597 52.444 73.1254 48.8252C62.9066 42.2627 55.8285 34.1158 52.1254 29.8596C46.0785 22.9033 43.6504 18.3846 37.7722 17.194C33.2816 16.2846 27.6285 17.494 24.3379 21.244C18.7972 27.5627 21.7691 38.569 23.4754 40.4346C23.9066 40.9127 34.3972 52.3221 53.8691 66.9846C73.2097 81.544 90.3003 90.5908 91.0222 90.9658C93.0941 92.0533 95.3254 92.5596 97.5285 92.5315Z" fill="#FBC21A"/>
<path d="M103.81 100.894C110.785 100.894 116.719 95.5592 117.347 88.4811C118.003 80.9998 112.463 74.3998 104.982 73.7436C104.803 73.7248 80.4566 71.1842 60.7784 53.4092C40.2566 34.8748 33.4784 18.7405 33.4128 18.5811C30.6659 11.5873 22.7909 8.19358 15.7972 10.9405C8.81283 13.6873 5.39095 21.628 8.13783 28.6217C8.4847 29.503 16.9034 50.4373 42.5534 73.603C69.2066 97.6686 101.26 100.725 102.619 100.847C103.013 100.884 103.416 100.894 103.81 100.894Z" fill="#ED6C30"/>
<path d="M71.3346 108.722C52.8096 108.3 38.4565 97.753 33.2065 93.7874C30.9846 92.1093 22.1253 85.228 14.1003 73.3874C5.38152 60.5155 3.88152 50.9811 3.57215 48.778C2.88777 43.8843 1.61277 34.8093 6.80652 30.8061C9.7409 28.5468 13.4065 28.9124 13.9878 28.978C19.9784 29.6718 23.6346 36.0843 25.4253 38.578C25.4815 38.653 25.7253 39.1124 26.1659 39.8811L26.1753 39.8905L26.869 41.0718C33.3753 51.9186 44.6909 61.7343 44.6909 61.7343C48.9565 65.4374 54.0284 69.8343 61.8565 73.7155C66.4784 76.003 68.1471 76.1811 80.4753 81.6468C87.5065 84.7686 91.9221 86.9061 93.4315 91.3874C94.1815 93.6186 93.9846 95.728 93.6753 97.1999C92.9253 98.953 91.5846 101.494 89.1846 103.687C87.7409 105.009 82.9596 108.984 71.3346 108.722Z" fill="#FBC21A"/>
<path d="M102.666 89.2407C103.086 89.2392 103.498 89.129 103.862 88.9209C104.226 88.7127 104.53 88.4137 104.745 88.053C104.959 87.6923 105.076 87.2823 105.085 86.8628C105.094 86.4433 104.993 86.0287 104.794 85.6595C103.585 83.4064 102.123 81.299 100.435 79.3782C99.188 77.9532 95.8411 74.4282 91.7911 72.347C86.6161 69.6845 82.4161 70.4814 79.0411 71.1095C76.0505 71.672 74.4098 71.9064 72.6005 70.697C70.613 69.3751 70.1255 67.8657 69.3942 65.5782C68.5692 63.0001 67.538 59.7939 64.0317 56.4095C59.6911 52.2189 55.1161 51.5345 51.4505 50.9907C48.1411 50.4939 45.5255 50.1095 43.3411 47.5314C41.2786 45.0939 41.2973 42.7689 41.3348 39.8251C41.3723 36.497 41.4098 32.3439 37.838 28.1064C35.288 25.0876 32.0536 23.372 29.4473 22.0032C26.3817 20.3907 24.638 19.397 24.3848 17.6345C24.2723 16.8845 24.413 16.0595 24.8067 15.1876C25.3411 13.9595 24.788 12.5251 23.5598 11.9814C22.3317 11.447 20.8973 12.0001 20.3536 13.2282C19.5942 14.9532 19.3317 16.6782 19.5755 18.3376C20.2036 22.6314 23.7473 24.497 27.1786 26.3064C29.6442 27.6001 32.1848 28.9501 34.1255 31.247C36.5348 34.1064 36.5067 36.7407 36.4786 39.7782C36.4411 43.097 36.4036 46.8657 39.638 50.6814C43.0036 54.6564 47.1192 55.2751 50.7473 55.8095C54.1973 56.3251 57.4505 56.8032 60.6755 59.9157C63.3098 62.4564 64.0223 64.697 64.7817 67.0782C65.5973 69.6189 66.5161 72.5064 69.9192 74.7657C73.463 77.1189 76.9036 76.472 79.9505 75.9001C82.9973 75.3282 85.8848 74.7845 89.588 76.6876C92.9911 78.4314 95.9723 81.6564 96.8067 82.6032C98.2505 84.2439 99.5067 86.0532 100.538 87.9751C100.969 88.7814 101.804 89.2407 102.666 89.2407Z" fill="#FFE266"/>
</svg>

<svg xmlns="http://www.w3.org/2000/svg" fill="none" aria-hidden="true" data-slot="icon" viewBox="0 0 120 120"><path fill="#FBC21A" d="M97.529 92.532a13.63 13.63 0 0 0 9.449-3.994c.769-.769 1.744-1.744 2.41-3.281 2.578-5.991-2.775-13.154-4.06-14.87-2.681-3.59-5.68-5.7-6.853-6.459-.168-.112-.309-.197-.365-.234-5.138-3.225-19.35-11.25-24.985-14.869-10.218-6.562-17.296-14.71-21-18.965-6.047-6.957-8.475-11.475-14.353-12.666-4.49-.91-10.143.3-13.434 4.05-5.54 6.319-2.569 17.325-.863 19.19.432.479 10.922 11.888 30.394 26.55C73.21 81.545 90.3 90.592 91.022 90.967a13.6 13.6 0 0 0 6.506 1.566"/><path fill="#ED6C30" d="M103.81 100.894c6.975 0 12.909-5.335 13.537-12.413.656-7.481-4.884-14.081-12.365-14.737-.179-.02-24.525-2.56-44.204-20.335-20.521-18.534-27.3-34.668-27.365-34.828-2.747-6.994-10.622-10.387-17.616-7.64-6.984 2.746-10.406 10.687-7.66 17.68.348.882 8.766 21.816 34.416 44.982 26.654 24.066 58.707 27.122 60.066 27.244.394.037.797.047 1.191.047"/><path fill="#FBC21A" d="M71.335 108.722C52.81 108.3 38.457 97.753 33.207 93.787c-2.222-1.678-11.082-8.559-19.107-20.4C5.382 60.516 3.882 50.981 3.572 48.778c-.684-4.894-1.96-13.969 3.235-17.972 2.934-2.26 6.6-1.894 7.18-1.828 5.991.694 9.648 7.106 11.438 9.6.056.075.3.534.74 1.303l.01.01.694 1.18c6.506 10.848 17.822 20.663 17.822 20.663 4.265 3.703 9.337 8.1 17.165 11.982 4.622 2.287 6.291 2.465 18.62 7.93 7.03 3.123 11.446 5.26 12.956 9.741.75 2.232.553 4.341.243 5.813-.75 1.753-2.09 4.294-4.49 6.487-1.444 1.322-6.225 5.297-17.85 5.035"/><path fill="#FFE266" d="M102.666 89.24a2.427 2.427 0 0 0 2.128-3.58 33.5 33.5 0 0 0-4.359-6.282c-1.247-1.425-4.594-4.95-8.644-7.031-5.175-2.662-9.375-1.866-12.75-1.237-2.99.562-4.631.796-6.44-.413-1.988-1.322-2.475-2.831-3.207-5.119-.825-2.578-1.856-5.784-5.362-9.169-4.34-4.19-8.916-4.874-12.581-5.418-3.31-.497-5.925-.882-8.11-3.46-2.062-2.437-2.044-4.762-2.006-7.706.037-3.328.075-7.481-3.497-11.719-2.55-3.018-5.784-4.734-8.39-6.103-3.066-1.612-4.81-2.606-5.063-4.369-.113-.75.028-1.575.422-2.446a2.44 2.44 0 0 0-1.247-3.207 2.44 2.44 0 0 0-3.206 1.247c-.76 1.725-1.022 3.45-.778 5.11.628 4.293 4.171 6.159 7.603 7.968 2.465 1.294 5.006 2.644 6.947 4.941 2.409 2.86 2.38 5.494 2.353 8.531-.038 3.319-.075 7.088 3.159 10.903 3.366 3.975 7.481 4.594 11.11 5.129 3.45.515 6.703.993 9.928 4.106 2.634 2.54 3.346 4.781 4.106 7.162.815 2.54 1.734 5.428 5.137 7.688 3.544 2.353 6.985 1.706 10.032 1.134s5.934-1.116 9.637.788c3.403 1.743 6.384 4.968 7.219 5.915 1.444 1.64 2.7 3.45 3.731 5.372a2.41 2.41 0 0 0 2.128 1.266"/></svg>
